X: 42202
T: Waverley Steps
R: reel
M: 4/4
K: Dmajor
A2|d2 de dcBA|B2 Bc BAGF|A2 AB AGFA|G2 E2 E2 A2|
d2 de dcBA|B2 Bc BAGF|A2 Bc d2 AG|F2 D2 D2:|
A,2|D2 d2 d2 cB|c2 e2 e2 de|f2 d2 d2 f2|edcB AGFE|
D2 d2 d2 cB|c2 e2 e2 dc|BABc dBAG|F2 D2 D2 A,2|
D2 d2 d2 cB|c2 e2 e2 de|f2 d2 d2 f2|edcB AGFE|
DEFG A2de|fedB A2 GF|DEFG ABde|f2 d2 d2||

